X: 1
T: Tam Lin   [Bm]
T: the Howling Wind
T: the Glasgow Reel
C: Davey Arthur
O: 1989?
S: Elke Baker's version
Z: John Chambers <jc:trillian.mit.edu>
M: C|
L: 1/8
K: Bm
(G |\
"Bm"~F2) BF dFBF | "G"~G2 BG dGBG | "A"~A2 cA eAce | "Bm"dcBA "A"BAFE || "Bm"~F2 BF dFBF |
"G"~G2 BG dGBG | "A"~A2 cA eAce | "A"dcBA "Bm"B3 :: (^a | "Bm"b)afe d2B(^a | "Bm"b)afe d2B(^g |
"A"~a2)ea cae(^g | ~a2)ea cae(^a || "Bm"b)afe d2B(^a | b)afe d2BA | "G"GFGA BABc | "A"dcBA "Bm"B3 :|
